X:104
T:Wi' A Hundred Pipers #1 
C:Joe Buchanan's Scottish Tome - Page 130.2
I:130 2
Z:Carl Allison
R:Jig
L:1/8
M:6/8
K:A
A/B/ | "A"c2 E "A7"E>FE | "D"F2 A A2 f | "A"e2 c "F#m"c>BA | "B7"c2 B "E7"B>AB |
"A"c2 E "A7"E>FE | "D"F2 A "D#m"A2 f | "A"e2 c "E7"c>cB | "A"A2 A A2 :|
c/d/ | "A"e2 e "A7"e>ce | "D"f2 a "D#m"a2 f | "A"e2 c "F#m"c>BA | "B7"c2 B "E7"B>cd |
"A"e2 e e>fg | "D" a "D#m"a2 a>gf | "A"e2 c "E7"B>cA | "A"A2 A A :|

